X:1
T:Mascherata di Pescatori
T:Mascherata di Pescatori
T:Giovanni Ghizzolo
C:Giovanni Ghizzolo
%%score [ 1 2 3 4 ]
L:1/8
Q:1/4=160
M:4/4
K:F
V:1 treble nm="Soprano" snm="S"
V:2 treble nm="Alto" snm="A"
V:3 treble-8 nm="Tenor" snm="T"
V:4 bass nm="Bass" snm="B"
V:1
"^Source: Madrigali et Arie---Libro primo---Venetia---A.Raverij---1609.\nEditor: André Vierendeels (12/05/07)\n" z2 B2 B2 B2 | %1
w: Siam Pes- ca-|
w: Noi siam na-|
w: Sap- piam do-|
w: Hab- biam si|
 c3 c d2 d2 | z2 d2 c2 B2 | c4 c2 d2- | dd c2 B2 A2 | G2 G2 A3 A | G4 G4 :: GA B2 c3 c | d4 d2 d2 | %9
w: to- ri'o Don- ne|et hor vo-|glia- mo far|_ di voi tut- ti|pre- da col no-|stro'Ha- mo,|ne di ques- to ri-|de- te per-|
w: ti'e no- dri- ti|den- tro al|ma- re e|_ siam co- si'ec- ce-|len- ti nel pes-|ca- re|che fug- ge'il pes- ce'in|va- no per|
w: ve'e gli sta _|do- ve s'as-|con- de tra|_ l'al- ghe per gli|sco- gli'e'in mez- zo|l'on- de,|e nel por- tia- mo'ar-|di- ti a|
w: dol- ce, e si|gra- di- ta|l'es- ca che|_ quan- to piu da|noi, Don- ne, si|pes- ca|tan- to me- no rin-|cres- ce e|
 c2 B2 A3 A | G4 G4 :: z2 D2 E2 G2 | A6 A2 | G4 G4 |] %14
w: che lo pro- va-|re- te,|per- che lo|pro- va-|re- te.|
w: scam- par- ci di|ma- no,|per scam- par-|ci di|ma- no.|
w: ques- ti no- stri|li- di,|a ques- ti|no- stri|li- di.|
w: piu vi cor- re'il|pes- ce,|e piu vi|cor- re'il|pes- ce.|
V:2
 z2 D2 _E2 F2 | F3 F F2 F2 | z2 F2 F2 D2 | F4 F2 F2- | FF F2 B,2 B,2 | C2 D2 E2 D2 | D4 D4 :: %7
w: Siam Pes- ca-|to- ri'o Don- ne|et hor vo-|glia- mo far|_ di voi tut- ti|pre- da col no-|stro'Ha- mo,|
w: Noi siam na-|ti'e no- dri- ti|den- tro al|ma- re e|_ siam co- si'ec ce-|len- ti nel pes-|ca- re|
w: Sap- piam do-|ve'e gli sta _|do- ve s'as-|con- de tra|_ l'al- ghe per gli|sco- gli'e'in mez- zo|l'on- de|
w: Hab- biam si|dol- ce, e si|gra- di- ta|l'es- ca che|_ quan- to piu da|noi, Don- ne, si|pes- ca|
 GG G2 G2 F2 | F4 D2 D2 | F2 D2 E2 D2 | D4 D4 :: z2 =B,2 C2 D2 | D6 D2 | D4 D4 |] %14
w: ne di ques- to ri-|de- te per|che lo pro- va-|re- te|per che lo|pro- va-|re- te.|
w: che fug- ge'il pes- ce'in|va- no per|scam- par- ci di|ma- no|per scam- par-|ci di|ma- no.|
w: e nel por- tia- mo'ar-|di- ti a|ques- ti no- stri|li- di,|a ques- ti|no- stri|li- di.|
w: tan- to me- co rin-|cres- ce e|piu vi cor- re'il|pes- ca|e piu vi|cor- re'il|pes- ce.|
V:3
 z2 G2 G2 B2 | A3 A B2 B2 | z2 B2 A2 G2 | A4 A2 B2- | BB c2 d2 d2 | G2 G2 G2 ^F2 | G4 G4 :: %7
w: Siam Pes- ca-|to- ri'o Don- ne|et hor vo-|glia- mo far|_ di voi tut- ti|pre- da col no-|stro'Ha- mo|
w: Noi siam na-|ti'e no- dri- ti|den- tro al|ma- re e|_ siam co- si'ec- ce-|len- ti nel pes-|ca- re|
w: Sap- piam do-|ve'e gli sta _|do- ve s'as-|con- de tra|_ l'al- ghe per gli|sco- gli'e'in mez- zo|l'on- de|
w: Hab- biam si|dol- ce, e si|gra- di- ta|l'es- ca che|_ quan- to piu- da|noi, Don- ne, si|pes- ca|
 Bc d2 c2 A2 | B4 F2 B2 | A2 G2 G2 ^F2 | G4 G4 :: z2 G2 G2 G2 | G4 ^F4 | G4 G4 |] %14
w: ne di ques- to ri|de- te per|che lo pro- va-|re- te,|per che lo|pro- va-|re- te.|
w: che fug- ge'il pes- ce'in|va- no per|scam- par- ci di|ma- no,|per scam- par-|ci di|ma- no.|
w: e nel por- tia- mo'ar-|di- ti a|ques- ti no- stri|li- di,|a ques- ti|no- stri|li- di.|
w: tan- to me- co rin-|cres- ce e|piu vi cor- re'il|pes- ca,|e piu vi|cor- re'il|pes- ca.|
V:4
 z2 G,2 _E,2 D,2 | F,3 F, B,,2 B,,2 | z2 B,,2 F,2 G,2 | F,4 F,2 B,2- | B,B, A,2 G,2 F,2 | %5
w: Siam Pes- ca-|to- ri'o Don- ne|et hor vo-|lia mo far|_ di voi tu- ti|
w: Noi siam na-|ti'e no- dri- ti|den- tro al|ma- re e|_ siam co- s'ec- ce-|
w: Sap- piam do-|ve'e gli sta _|do- ve s'as-|con- de tra|_ l'al- ghe per gli|
w: Hab- biam si|dol- ce, e si|gra- di- ta|l'es- ca che|_ quan- to piu da|
 _E,2 D,2 C,2 D,2 | G,,4 G,,4 :: G,G, G,2 _E,2 F,2 | B,,4 B,,2 G,,2 | %9
w: pre- da col no-|stro'Ha- mo|ne di ques- to ri-|de- te per|
w: len- ti nel pes-|ca- re|che fug- ge'il pes- ce'in-|va- no per|
w: sco- gli'e'in mez- zo|l'on- de|e nel por- ta- mo'ar-|di- ti a|
w: noi, Don- ne, si|pes- ca|tan- to me- co rin-|ces- ce e|
"^6)""^5)""^7)""^Quanto piu guizza, falta, e si dimena\nTra le reti, le canne, e per l'arena\n(Se ben languendo more)\nTanto il gusto, e maggiore.\n----\nPesciam di giorno, e pesciam alla Luna\nO sia tranquillo il Mar, o sia Fortuna\nE il Mar quanto piu freme\nDa noi si calca, e preme.\n----\nDe l'acquistata preda alla fin scarca\nRitorna agile al Mar la nostra barca\nEpare ch'ogn' un  godi\nDi pescar in piu modi" A,,2 B,,2 C,2 D,2 | %10
w: che lo pro va-|
w: scam- par- ci di|
w: ques- ti no- stri|
w: piu vi cor- re'il|
"^Note: 1) original keys:  Ut 1st, Ut 3rd, Ut 4rth, Fa 4rth\n          2) m10, Alto: first\"re\" noted as \"fa\"i n original print" G,,4 G,,4 :: %11
w: re- te|
w: ma- no,|
w: li- di,|
w: pes- ca,|
 z2"^10)""^8)""^9)" G,,2"^Con gli Hami, e con Tridenti, e con le reti\nAccotti, pronti, risoluti e cheti\nHabbiamle infide tese\nPer far novelle imprese.\n----\nHor se cio non credete quivi al Mare\nDonne gentil venitelo a provare\nE stando a feder voi\nLassate far a noi.\n----\nCh'in breve spatio d'hora vederete\nTirarsi inanti a voi piena la rete\nE diverrete amiche\nDelle nostre fatiche.\n\n" C,2 =B,,2 | %12
w: per che lo|
w: per scam- par-|
w: e ques- ti|
w: e piu vi|
 D,6 D,2 | G,,4 G,,4 |] %14
w: pro- va-|re- te.|
w: ci di|ma- no.|
w: no- stri|li- di.|
w: cor- re'il|pes- ca.|

